X:1
%
T:Trip to St. Andrews, A
M:6/8
L:1/8
R:Jig
B:Gow & Shepherd - Collection of entirely original strathspey, reels, marches, quicksteps etc. (1797, p. 4)
Z:AK/Fiddler's Companion
K:A
A2A Ace|{fga}agf ecA|A2A Ace|BGE ECA,|
A2A Ace|{fga}agf ecA|dfd ecA|EBG !fermata!A3!fine!:|
e2a ac'a|bd'b bge|e2 a ac'a|d'bg !fermata!a3|
e2a ac'a|bd'b bge|bd'b c'e'c'|d'bg !fermata!a2!D.C.!||

